X:535
T:The Night Piece
M:6/8
L:1/8
S:Colin Hume's website,  colinhume.com  - chords can also be printed below the stave.
Q:3/8=112
%%stretchstaff 0
C:John Playford, 1651
K:D
%%textfont Times-Roman-Bold 20
%%center 2 A's and 3 B's, x 9
P:A
|: "D"f2 d a2 f | "D"d2 A d f2 | "Em"e g2 fed | "A7"c3/e/f g2 a :|
P:B
|: "G"bga "D/F#"gaf | "Em"efd "A7"e2 A | "D"ddc "Bm"ddA |1,2 "A7"fe3/d/ "D"d2 a :|3 "A7"fe3/d/ "D"d3 |]

